X: 59
T:Old Toler, 68
M:6/8
L:1/8
Q:120
O:Snowshill Manor
A:Gloucestershire
N:sq: The next 2 notes (ed) are written as two semiquavers.
Z:Charles Menteith
K:G
"V:1"\
d2 | g2 g e2 c | B2 c d2 f | (e g(fa)) c'2 | b3-b2 d |!
"V:2"\
d2 | B2 B c2 c | d2 c B2 d | c2 e f2 a | g3-g2 d |!
"V:1"\
g2 g b2 g | e2 e a2 g | f2 f "sq"(ed) e | d3-d2 :| d |!
"V:2"\
 B2 B B2 B | ^c2 e f2 e | d2 d (^cBc) | d3-d2 :| z |!
"V:1"\
a2 f d2 d | b2 g d2 d | f2 g c'2 b | {b}a3-a2 d |!
"V:2"\
f2 d F2 f | g2 e dFA | d2 e a2 g | f3-f2 A |!
"V:1"\
(d^c) d (efg) | (abc') (d'b)g | e2 a g2 f | Hg3 zz G/B/ |!
"V:2"\
FAd ^cde | fg a2 b B | c2 c d2 d | B3 zz B/B/ |!
